<?xml version="1.0" encoding="UTF-8"?>
<map version="1.10" tiledversion="1.12.2" orientation="hexagonal" renderorder="right-down" width="30" height="30" tilewidth="32" tileheight="32" infinite="0" hexsidelength="0" staggeraxis="y" staggerindex="odd" nextlayerid="14" nextobjectid="28">
 <tileset firstgid="1" source="Thespazztikone_tilemaps_005_neu.tsx"/>
 <imagelayer id="4" name="Bildebene 1"/>
 <layer id="1" name="ground" width="30" height="30">
  <data encoding="csv">
121,121,121,121,121,121,121,121,121,121,121,121,121,121,121,121,121,121,121,121,121,121,121,121,121,121,121,121,121,121,
121,121,121,121,121,121,121,121,121,121,121,121,121,121,121,121,121,121,121,121,121,121,121,121,121,121,121,121,121,121,
121,121,121,121,121,121,121,121,121,121,121,121,121,121,121,121,121,121,121,121,121,121,121,121,121,121,121,121,121,121,
121,121,121,121,121,121,121,121,121,121,121,121,121,121,121,121,121,121,121,121,121,121,121,121,121,121,121,121,121,121,
121,121,121,121,121,121,121,121,121,121,121,121,121,121,121,121,121,121,121,121,121,121,121,121,121,121,121,121,121,121,
121,121,121,121,121,121,121,121,121,121,121,121,121,121,121,121,121,121,121,121,121,121,121,121,121,121,121,121,121,121,
121,121,121,121,121,121,121,121,121,121,121,121,121,121,121,121,121,121,121,121,121,121,121,121,121,121,121,121,121,121,
121,121,121,121,121,121,121,121,121,121,121,121,121,121,121,121,121,121,121,121,121,121,121,121,121,121,121,121,121,121,
121,121,121,121,121,121,121,121,121,121,121,121,121,121,121,121,121,121,121,121,121,121,121,121,121,121,121,121,121,121,
121,121,121,121,121,121,121,121,121,121,121,121,121,121,121,121,121,121,121,121,121,121,121,121,121,121,121,121,121,121,
121,121,121,121,121,121,121,121,121,121,121,121,121,121,121,121,121,121,121,121,121,121,121,121,121,121,121,121,121,121,
121,121,121,121,121,121,121,121,121,121,121,121,121,121,121,121,121,121,121,121,121,121,121,121,121,121,121,121,121,121,
121,121,121,121,121,121,121,121,121,121,121,121,121,121,121,121,121,121,121,121,121,121,121,121,121,121,121,121,121,121,
121,121,121,121,121,121,121,121,121,121,121,121,121,121,121,121,121,121,121,121,121,121,121,121,121,121,121,121,121,121,
121,121,121,121,121,121,121,121,121,121,121,121,121,121,121,121,121,121,121,121,121,121,121,121,121,121,121,121,121,121,
121,121,121,121,121,121,121,121,121,121,121,121,121,121,121,121,121,121,121,121,121,121,121,121,121,121,121,121,121,121,
121,121,121,121,121,121,121,121,121,121,121,121,121,121,121,121,121,121,121,121,121,121,121,121,121,121,121,121,121,121,
121,121,121,121,121,121,121,121,121,121,121,121,121,121,121,121,121,121,121,121,121,121,121,121,121,121,121,121,121,121,
121,121,121,121,121,121,121,121,121,121,121,121,121,121,121,121,121,121,121,121,121,121,121,121,121,121,121,121,121,121,
121,121,121,121,121,121,121,121,121,121,121,121,121,121,121,121,121,121,121,121,121,121,121,121,121,121,121,121,121,121,
121,121,121,121,121,121,121,121,121,121,121,121,121,121,121,121,121,121,121,121,121,121,121,121,121,121,121,121,121,121,
121,121,121,121,121,121,121,121,121,121,121,121,121,121,121,121,121,121,121,121,121,121,121,121,121,121,121,121,121,121,
121,121,121,121,121,121,121,121,121,121,121,121,121,121,121,121,121,121,121,121,121,121,121,121,121,121,121,121,121,121,
121,121,121,121,121,121,121,121,121,121,121,121,121,121,121,121,121,121,121,121,121,121,121,121,121,121,121,121,121,121,
121,121,121,121,121,121,121,121,121,121,121,121,121,121,121,121,121,121,121,121,121,121,121,121,121,121,121,121,121,121,
121,121,121,121,121,121,121,121,121,121,121,121,121,121,121,121,121,121,121,121,121,121,121,121,121,121,121,121,121,121,
121,121,121,121,121,121,121,121,121,121,121,121,121,121,121,121,121,121,121,121,121,121,121,121,121,121,121,121,121,121,
121,121,121,121,121,121,121,121,121,121,121,121,121,121,121,121,121,121,121,121,121,121,121,121,121,121,121,121,121,121,
121,121,121,121,121,121,121,121,121,121,121,121,121,121,121,121,121,121,121,121,121,121,121,121,121,121,121,121,121,121,
121,121,121,121,121,121,121,121,121,121,121,121,121,121,121,121,121,121,121,121,121,121,121,121,121,121,121,121,121,121
</data>
 </layer>
 <layer id="10" name="collision" width="30" height="30">
  <data encoding="csv">
0,0,0,0,3,3,3,3,3,3,3,3,3,3,3,3,3,3,3,3,3,3,3,3,3,3,3,3,3,3,
0,0,0,3,3,3,3,3,3,3,3,3,3,3,3,3,3,3,3,3,3,3,3,3,3,3,3,3,3,3,
0,0,0,3,3,3,3,3,3,3,3,3,3,3,3,3,3,3,3,3,3,3,3,3,0,3,3,3,0,3,
0,0,0,3,3,3,3,3,3,3,3,3,3,3,3,3,3,3,3,3,3,3,3,0,0,3,3,0,0,3,
0,0,0,3,3,3,3,3,3,3,3,3,3,3,3,3,3,3,3,3,3,3,3,3,0,3,3,3,0,3,
0,0,0,3,0,0,0,0,0,0,0,0,0,0,0,0,0,0,0,0,0,0,0,0,0,0,0,0,0,3,
0,0,0,3,3,0,0,0,0,0,0,0,0,0,0,0,0,0,0,0,0,0,0,0,0,0,0,0,0,3,
0,0,0,3,0,0,0,0,0,0,0,0,0,0,0,0,0,0,0,0,0,0,0,0,0,0,0,0,0,3,
0,0,0,3,3,3,0,0,3,3,3,3,3,3,3,3,3,3,3,3,0,3,3,3,0,3,3,3,0,3,
0,0,0,3,3,3,0,3,3,0,0,0,0,0,0,0,0,0,0,0,0,3,3,0,0,3,3,0,0,3,
0,0,0,3,3,3,0,0,3,0,0,0,0,0,0,0,0,0,0,0,0,0,3,3,0,3,3,3,0,3,
0,0,0,3,3,3,0,3,0,0,0,0,0,0,0,0,0,0,0,0,0,3,3,0,0,3,3,0,0,3,
0,0,0,3,3,3,0,0,3,0,3,3,3,3,3,3,3,3,3,3,0,0,3,0,0,0,3,0,0,0,
0,0,0,0,0,3,0,3,0,3,3,0,0,0,3,3,3,3,0,3,0,0,0,0,0,0,0,0,0,3,
0,0,0,0,0,3,0,0,3,0,3,3,3,3,3,3,3,3,3,3,3,0,0,0,0,0,0,0,0,0,
0,0,0,0,0,0,0,0,0,3,3,3,3,3,3,3,3,3,3,3,0,0,0,0,0,0,0,0,0,3,
0,0,0,0,0,0,0,0,0,0,3,0,3,0,3,3,3,3,3,3,3,0,3,0,0,0,3,0,0,0,
0,0,0,0,0,0,0,0,0,3,3,3,3,3,3,3,3,3,3,3,0,3,3,0,0,3,3,0,0,3,
0,0,0,0,0,3,0,0,3,0,3,3,3,3,3,3,3,3,3,3,0,0,3,3,0,3,3,3,0,3,
0,0,0,0,0,3,0,3,0,0,0,0,0,0,0,0,0,0,0,0,0,3,3,0,0,3,3,0,0,3,
0,0,0,3,3,3,0,0,3,0,0,0,0,0,0,0,0,0,0,0,0,0,3,3,0,3,3,3,0,3,
0,0,0,3,3,3,0,3,3,0,0,0,0,0,0,0,0,0,0,0,0,3,3,0,0,3,3,0,0,3,
0,0,0,3,3,3,0,0,3,3,3,3,3,3,3,3,3,3,3,3,0,3,3,3,0,3,3,3,0,3,
0,0,0,0,0,0,0,0,0,0,0,0,0,0,0,0,0,0,0,0,0,0,0,0,0,0,0,0,0,3,
0,0,0,3,3,0,0,0,0,0,0,0,0,0,0,0,0,0,0,0,0,0,0,0,0,0,0,0,0,3,
0,0,0,3,0,0,0,0,0,0,0,0,0,0,0,0,0,0,0,0,0,0,0,0,0,0,0,0,0,3,
0,0,0,3,3,3,3,3,3,3,3,3,3,3,3,3,3,3,3,3,3,3,3,3,0,3,3,3,0,3,
0,0,0,3,3,3,3,3,3,3,3,3,3,3,3,3,3,3,3,3,3,3,3,0,0,3,3,0,0,3,
0,0,0,0,3,3,3,3,3,3,3,3,3,3,3,3,3,3,3,3,3,3,3,3,0,3,3,3,0,3,
0,0,0,0,3,3,3,3,3,3,3,3,3,3,3,3,3,3,3,3,3,3,3,3,3,3,3,3,3,3
</data>
 </layer>
 <layer id="12" name="decoration" width="30" height="30">
  <data encoding="csv">
0,0,0,0,3,3,3,3,3,3,3,3,3,3,3,3,3,3,3,3,3,3,3,3,3,3,3,3,3,3,
0,0,0,3,3,3,3,3,3,3,3,3,3,3,3,3,3,3,3,3,3,3,3,3,3,3,3,3,3,3,
0,0,0,3,3,3,3,3,3,3,3,3,3,3,3,3,3,3,3,3,3,3,3,3,0,3,3,3,0,3,
0,0,0,3,3,3,3,3,3,3,3,3,3,3,3,3,3,3,3,3,3,3,3,0,0,3,3,0,0,3,
0,0,0,3,3,3,3,3,3,3,3,3,3,3,3,3,3,3,3,3,3,3,3,3,0,3,3,3,0,3,
0,0,0,3,0,0,0,0,0,0,0,0,0,0,0,0,0,0,0,0,0,0,0,0,0,0,0,0,0,3,
0,0,0,3,3,0,0,0,0,0,0,0,0,0,0,0,0,0,0,0,0,0,0,0,0,0,0,0,0,3,
0,0,0,3,0,0,0,0,0,0,0,0,0,0,0,0,0,0,0,0,0,0,0,0,0,0,0,0,0,3,
0,0,0,3,3,3,0,0,3,3,3,3,3,3,3,3,3,3,3,3,0,3,3,3,0,3,3,3,0,3,
0,0,0,3,3,3,0,3,3,0,0,0,0,0,0,0,0,0,0,0,0,3,3,0,0,3,3,0,0,3,
0,0,0,3,3,3,0,0,3,0,0,0,0,0,0,0,0,0,0,0,0,0,3,3,0,3,3,3,0,3,
0,0,0,3,3,3,0,3,0,0,0,0,0,0,0,0,0,0,0,0,0,3,3,0,0,3,3,0,0,3,
0,0,0,3,3,3,0,0,3,0,3,3,3,3,3,3,3,3,3,3,0,0,3,0,0,0,3,0,0,0,
0,0,0,0,0,3,0,3,0,3,3,0,0,0,3,3,3,3,0,3,0,0,0,0,0,0,0,0,0,3,
0,0,0,0,0,3,0,0,3,0,3,3,3,3,3,3,3,3,3,3,3,0,0,0,0,0,0,0,0,0,
0,0,0,0,0,0,0,0,0,3,3,3,3,3,3,3,3,3,3,3,0,0,0,0,0,0,0,0,0,3,
0,0,0,0,0,0,0,0,0,0,3,0,3,0,3,3,3,3,3,3,3,0,3,0,0,0,3,0,0,0,
0,0,0,0,0,0,0,0,0,3,3,3,3,3,3,3,3,3,3,3,0,3,3,0,0,3,3,0,0,3,
0,0,0,0,0,3,0,0,3,0,3,3,3,3,3,3,3,3,3,3,0,0,3,3,0,3,3,3,0,3,
0,0,0,0,0,3,0,3,0,0,0,0,0,0,0,0,0,0,0,0,0,3,3,0,0,3,3,0,0,3,
0,0,0,3,3,3,0,0,3,0,0,0,0,0,0,0,0,0,0,0,0,0,3,3,0,3,3,3,0,3,
0,0,0,3,3,3,0,3,3,0,0,0,0,0,0,0,0,0,0,0,0,3,3,0,0,3,3,0,0,3,
0,0,0,3,3,3,0,0,3,3,3,3,3,3,3,3,3,3,3,3,0,3,3,3,0,3,3,3,0,3,
0,0,0,0,0,0,0,0,0,0,0,0,0,0,0,0,0,0,0,0,0,0,0,0,0,0,0,0,0,3,
0,0,0,3,3,0,0,0,0,0,0,0,0,0,0,0,0,0,0,0,0,0,0,0,0,0,0,0,0,3,
0,0,0,3,0,0,0,0,0,0,0,0,0,0,0,0,0,0,0,0,0,0,0,0,0,0,0,0,0,3,
0,0,0,3,3,3,3,3,3,3,3,3,3,3,3,3,3,3,3,3,3,3,3,3,0,3,3,3,0,3,
0,0,0,3,3,3,3,3,3,3,3,3,3,3,3,3,3,3,3,3,3,3,3,0,0,3,3,0,0,3,
0,0,0,0,3,3,3,3,3,3,3,3,3,3,3,3,3,3,3,3,3,3,3,3,0,3,3,3,0,3,
0,0,0,0,3,3,3,3,3,3,3,3,3,3,3,3,3,3,3,3,3,3,3,3,3,3,3,3,3,3
</data>
 </layer>
 <layer id="8" name="decoration - upper" width="30" height="30">
  <data encoding="csv">
0,0,0,0,0,0,0,0,0,0,0,0,0,0,0,0,0,0,0,0,0,0,0,0,0,0,0,0,0,0,
0,0,0,0,0,0,0,0,0,0,0,0,0,0,0,0,0,0,0,0,0,0,0,0,0,0,0,0,0,0,
0,0,0,0,0,0,0,0,0,0,0,0,0,0,0,0,0,0,0,0,0,0,0,0,0,0,0,0,0,0,
0,0,0,0,0,0,0,0,0,0,0,0,0,0,0,0,0,0,0,0,0,0,0,0,0,0,0,0,0,0,
0,0,0,0,0,0,0,0,0,0,0,0,0,0,0,0,0,0,0,0,0,0,0,0,0,0,0,0,0,0,
0,0,0,0,0,0,0,0,0,0,0,0,0,0,0,0,0,0,0,0,0,0,0,0,0,0,0,0,0,0,
0,0,0,0,0,0,0,0,0,0,0,0,0,0,0,0,0,0,0,0,0,0,0,0,0,0,0,0,0,0,
0,0,0,0,0,0,0,0,0,0,0,0,0,0,0,0,0,0,0,0,0,0,0,0,0,0,0,0,0,0,
0,0,0,0,0,0,0,0,0,0,0,0,0,0,0,0,0,0,0,0,0,0,0,0,0,0,0,0,0,0,
0,0,0,0,0,0,0,0,0,0,0,0,0,0,0,0,0,0,0,0,0,0,0,0,0,0,0,0,0,0,
0,0,0,0,0,0,0,0,0,0,0,0,0,0,0,0,0,0,0,0,0,0,0,0,0,0,0,0,0,0,
0,0,0,0,0,0,0,0,0,0,0,0,0,0,0,0,0,0,0,0,0,0,0,0,0,0,0,0,0,0,
0,0,0,0,0,0,0,0,0,0,0,0,0,0,0,0,0,0,0,0,0,0,0,0,0,0,0,0,0,0,
0,0,0,0,0,0,0,0,0,0,0,0,0,0,0,0,0,0,0,0,0,0,0,0,0,0,0,0,0,0,
0,0,0,0,0,0,0,0,0,0,0,0,0,0,0,0,0,0,0,0,0,0,0,0,0,0,0,0,0,0,
0,0,0,0,0,0,0,0,0,0,0,0,0,0,0,0,0,0,0,0,0,0,0,0,0,0,0,0,0,0,
0,0,0,0,0,0,0,0,0,0,0,0,0,0,0,0,0,0,0,0,0,0,0,0,0,0,0,0,0,0,
0,0,0,0,0,0,0,0,0,0,0,0,0,0,0,0,0,0,0,0,0,0,0,0,0,0,0,0,0,0,
0,0,0,0,0,0,0,0,0,0,0,0,0,0,0,0,0,0,0,0,0,0,0,0,0,0,0,0,0,0,
0,0,0,0,0,0,0,0,0,0,0,0,0,0,0,0,0,0,0,0,0,0,0,0,0,0,0,0,0,0,
0,0,0,0,0,0,0,0,0,0,0,0,0,0,0,0,0,0,0,0,0,0,0,0,0,0,0,0,0,0,
0,0,0,0,0,0,0,0,0,0,0,0,0,0,0,0,0,0,0,0,0,0,0,0,0,0,0,0,0,0,
0,0,0,0,0,0,0,0,0,0,0,0,0,0,0,0,0,0,0,0,0,0,0,0,0,0,0,0,0,0,
0,0,0,0,0,0,0,0,0,0,0,0,0,0,0,0,0,0,0,0,0,0,0,0,0,0,0,0,0,0,
0,0,0,0,0,0,0,0,0,0,0,0,0,0,0,0,0,0,0,0,0,0,0,0,0,0,0,0,0,0,
0,0,0,0,0,0,0,0,0,0,0,0,0,0,0,0,0,0,0,0,0,0,0,0,0,0,0,0,0,0,
0,0,0,0,0,0,0,0,0,0,0,0,0,0,0,0,0,0,0,0,0,0,0,0,0,0,0,0,0,0,
0,0,0,0,0,0,0,0,0,0,0,0,0,0,0,0,0,0,0,0,0,0,0,0,0,0,0,0,0,0,
0,0,0,0,0,0,0,0,0,0,0,0,0,0,0,0,0,0,0,0,0,0,0,0,0,0,0,0,0,0,
0,0,0,0,0,0,0,0,0,0,0,0,0,0,0,0,0,0,0,0,0,0,0,0,0,0,0,0,0,0
</data>
 </layer>
 <objectgroup id="2" name="Spawns">
  <object id="1" name="spawn_monster" x="933" y="259">
   <point/>
  </object>
  <object id="2" name="spawn_player1" x="51" y="240">
   <point/>
  </object>
  <object id="3" name="spawn_player3" x="79" y="312">
   <point/>
  </object>
  <object id="4" name="spawn_player2" x="121" y="230">
   <point/>
  </object>
  <object id="5" name="spawn_player4" x="84" y="167">
   <point/>
  </object>
 </objectgroup>
 <objectgroup id="5" name="Gelaendetypen">
  <object id="16" name="Wall 12" type="ruins" x="137" y="5">
   <polygon points="0,0 831,1 833,185 795,180 795,31 748,38 752,85 669,81 668,35 622,35 623,81 17,81 16,133 60,131 65,219 64,242 29,242 29,212 -31,208 -30,31"/>
  </object>
  <object id="17" name="Wall 11" type="ruins" x="158" y="493">
   <polygon points="0,0 815,-2 815,-267 792,-264 793,-206 777,-198 772,-21 732,-28 730,-72 647,-69 649,-23 602,-26 601,-73 0,-73 -1,-119 41,-118 38,-199 10,-200 6,-168 -56,-164 -55,-52"/>
  </object>
  <object id="18" name="Wall 10" type="ruins" x="318" y="199" width="345" height="111"/>
  <object id="19" name="Wall 9" type="ruins" x="813" y="141" width="69" height="70"/>
  <object id="20" name="Wall 8" type="ruins" x="882" y="211"/>
  <object id="21" name="Wall 7" type="ruins" x="814" y="270" width="65" height="105"/>
  <object id="22" name="Wall 6" type="ruins" x="694" y="267" width="60" height="105"/>
  <object id="23" name="Wall 5" type="ruins" x="685" y="136" width="69" height="70"/>
  <object id="24" name="Wall 4" type="ruins" x="261" y="140" width="362" height="25"/>
  <object id="25" name="Wall 3" type="ruins" x="246" y="156" width="35" height="90"/>
  <object id="26" name="Wall 2" type="ruins" x="252" y="296" width="26" height="76"/>
  <object id="27" name="Wall 1" type="ruins" x="280" y="351" width="356" height="27"/>
 </objectgroup>
 <objectgroup id="13" name="Sektoren"/>
</map>
