<?xml version="1.0" encoding="UTF-8"?>
<map version="1.10" tiledversion="1.12.2" orientation="orthogonal" renderorder="right-down" width="30" height="20" tilewidth="32" tileheight="32" infinite="0" nextlayerid="4" nextobjectid="22">
 <imagelayer id="2" name="Background">
  <image source="Boroughs-and-Neighbourhoods-in-New-York-Map-of-the-neighbourhoods.jpg.webp" width="700" height="1050"/>
 </imagelayer>
 <layer id="1" name="Kachelebene 1" width="30" height="20" visible="0">
  <data encoding="csv">
0,0,0,0,0,0,0,0,0,0,0,0,0,0,0,0,0,0,0,0,0,0,0,0,0,0,0,0,0,0,
0,0,0,0,0,0,0,0,0,0,0,0,0,0,0,0,0,0,0,0,0,0,0,0,0,0,0,0,0,0,
0,0,0,0,0,0,0,0,0,0,0,0,0,0,0,0,0,0,0,0,0,0,0,0,0,0,0,0,0,0,
0,0,0,0,0,0,0,0,0,0,0,0,0,0,0,0,0,0,0,0,0,0,0,0,0,0,0,0,0,0,
0,0,0,0,0,0,0,0,0,0,0,0,0,0,0,0,0,0,0,0,0,0,0,0,0,0,0,0,0,0,
0,0,0,0,0,0,0,0,0,0,0,0,0,0,0,0,0,0,0,0,0,0,0,0,0,0,0,0,0,0,
0,0,0,0,0,0,0,0,0,0,0,0,0,0,0,0,0,0,0,0,0,0,0,0,0,0,0,0,0,0,
0,0,0,0,0,0,0,0,0,0,0,0,0,0,0,0,0,0,0,0,0,0,0,0,0,0,0,0,0,0,
0,0,0,0,0,0,0,0,0,0,0,0,0,0,0,0,0,0,0,0,0,0,0,0,0,0,0,0,0,0,
0,0,0,0,0,0,0,0,0,0,0,0,0,0,0,0,0,0,0,0,0,0,0,0,0,0,0,0,0,0,
0,0,0,0,0,0,0,0,0,0,0,0,0,0,0,0,0,0,0,0,0,0,0,0,0,0,0,0,0,0,
0,0,0,0,0,0,0,0,0,0,0,0,0,0,0,0,0,0,0,0,0,0,0,0,0,0,0,0,0,0,
0,0,0,0,0,0,0,0,0,0,0,0,0,0,0,0,0,0,0,0,0,0,0,0,0,0,0,0,0,0,
0,0,0,0,0,0,0,0,0,0,0,0,0,0,0,0,0,0,0,0,0,0,0,0,0,0,0,0,0,0,
0,0,0,0,0,0,0,0,0,0,0,0,0,0,0,0,0,0,0,0,0,0,0,0,0,0,0,0,0,0,
0,0,0,0,0,0,0,0,0,0,0,0,0,0,0,0,0,0,0,0,0,0,0,0,0,0,0,0,0,0,
0,0,0,0,0,0,0,0,0,0,0,0,0,0,0,0,0,0,0,0,0,0,0,0,0,0,0,0,0,0,
0,0,0,0,0,0,0,0,0,0,0,0,0,0,0,0,0,0,0,0,0,0,0,0,0,0,0,0,0,0,
0,0,0,0,0,0,0,0,0,0,0,0,0,0,0,0,0,0,0,0,0,0,0,0,0,0,0,0,0,0,
0,0,0,0,0,0,0,0,0,0,0,0,0,0,0,0,0,0,0,0,0,0,0,0,0,0,0,0,0,0
</data>
 </layer>
 <objectgroup id="3" name="Nachbarschaften">
  <object id="1" name="Harlem" x="86.3333" y="-0.666667">
   <polygon points="0,0 62,0.666667 66,22.3333 98.3333,66.6667 142.333,131.667 162,165 183.333,176 197.333,182.667 220.667,206.333 230.667,227 216.333,263.333 10,262.333 13,183 4.66667,175.333 6,152.333 11.3333,141.667 10,121.333 14.3333,114 14.6667,84.6667 -2.66667,39.3333"/>
  </object>
  <object id="2" name="Upper West Side" x="96.6667" y="262.333" width="64.3333" height="234.333"/>
  <object id="3" name="Upper East Side" x="219" y="263.333" width="90.6667" height="234.667"/>
  <object id="4" name="Hell's Kitchen" x="91.3333" y="499.333" width="70" height="80.6667"/>
  <object id="5" name="Theater District" x="161.667" y="521.333" width="35.3333" height="58.6667"/>
  <object id="7" name="Midtown" x="162.667" y="500.667">
   <polygon points="0,0 145.333,0 145.333,14.3333 138,40.3333 132.667,90.6667 133.667,112.333 141.667,131 142.667,153.667 145.667,158.667 77.3333,159 76.6667,124.333 66,124 66,115.333 34.3333,115 34.6667,127 -18,128.333 -17.3333,80 34.6667,80 35.3333,19.6667 -0.333333,20"/>
  </object>
  <object id="8" name="Koreatown" x="197.818" y="617.455" width="30.5455" height="8.36364"/>
  <object id="9" name="Nomad" x="197.455" y="626" width="39.8182" height="36.1818"/>
  <object id="10" name="Flatiron District" x="198" y="662.727" width="39.8182" height="38.3636"/>
  <object id="11" name="Chelsea" x="197.25" y="628.75">
   <polygon points="0,0 -0.25,70.75 -76.25,70 -91,47.25 -99.75,45.5 -106.75,2"/>
  </object>
  <object id="12" name="Gramercy" x="239.5" y="662.75">
   <polygon points="0,0 71.5,1 83.25,19.75 92.25,25.75 105.75,30.25 111.75,36.25 0,36.75"/>
  </object>
  <object id="13" name="Greenwhich Village / West Village" x="124" y="702">
   <polygon points="0,0 35.25,69 72.75,57.75 121.75,57.75 136.25,55.5 117.75,0.25"/>
  </object>
  <object id="14" name="East Village" x="243" y="702.5">
   <polygon points="0,0 110,0 121,44 21,55.5 12.25,28.75"/>
  </object>
  <object id="15" name="SoHo" x="159.25" y="775.75">
   <polygon points="0,0 41.75,-12.75 85,-12.75 103,-14.5 111,14 89.5,15.75 89.25,32.25 6,12.25"/>
  </object>
  <object id="16" name="Little Italy" x="250" y="794.5">
   <polygon points="0,0 22.5,-0.75 24,11.5 9.5,16.5 1,13.5"/>
  </object>
  <object id="17" name="Lower East Side" x="264.25" y="760.5">
   <polygon points="0,0 102,-11 109.25,4.5 112.25,39 105.5,49.5 73.5,73 26.25,101.75 1,89 43.75,49.75 35,26.5 8.5,30.75"/>
  </object>
  <object id="18" name="Chinatown" x="273.5" y="793.75">
   <polygon points="0,0 24.75,-4.5 31.5,12.75 -10.75,52.75 -36.25,55 -33,15.25 -11.5,20.25 3,16"/>
  </object>
  <object id="19" name="Financial District" x="177.25" y="849.25">
   <polygon points="0,0 28,70.25 42,75 52.25,73 64.5,79.75 68.25,88.5 85.75,76.5 112,14.25 84.25,2"/>
  </object>
  <object id="20" name="Hudson Yards" x="91.3636" y="581" width="53.2727" height="48.8182"/>
  <object id="21" name="TriBeCa" x="168.182" y="792">
   <polygon points="0,0 67.6364,17.2727 64.1818,57.0909 24.5455,56.7273"/>
  </object>
 </objectgroup>
</map>
